icon-themes/breeze_svg/cmd/lc_setdocumentproperties.svg

<svg viewBox="0 0 24 24" xmlns="http://www.w3.org/2000/svg"><path d="m5 3.9980469v.0019531 16h1 8 1v-.009766l.007812.009766 3.992188-3.992188v-.009765-1.40625-10.5937501h-1-12zm1 1.0019531h12v10h-4v1 3h-8zm7.5 2c-.652215 0-1.201611.4186606-1.408203 1h-5.091797v1h5.091797c.206592.5813394.755988 1 1.408203 1s1.201611-.4186606 1.408203-1h2.091797v-1h-2.091797c-.206592-.5813394-.755988-1-1.408203-1zm-3 4a1.5 1.5 0 0 0 -1.4121094 1h-2.0878906v1h2.0878906a1.5 1.5 0 0 0 1.4121094 1 1.5 1.5 0 0 0 1.412109-1h5.087891v-1h-5.087891a1.5 1.5 0 0 0 -1.412109-1zm0 1a.5.5 0 0 1 .5.5.5.5 0 0 1 -.5.5.5.5 0 0 1 -.5-.5.5.5 0 0 1 .5-.5z" fill="#4d4d4d"/></svg>

<svg xmlns="http://www.w3.org/2000/svg" viewBox="0 0 24 24">
 <path 
     style="fill:#4d4d4d" 
     d="M 5 3.9980469 L 5 4 L 5 20 L 6 20 L 14 20 L 15 20 L 15 19.990234 L 15.007812 20 L 19 16.007812 L 19 15.998047 L 19 14.591797 L 19 3.9980469 L 18 3.9980469 L 6 3.9980469 L 5 3.9980469 z M 6 5 L 18 5 L 18 15 L 14 15 L 14 16 L 14 19 L 6 19 L 6 5 z M 13.5 7 C 12.847785 7 12.298389 7.4186606 12.091797 8 L 7 8 L 7 9 L 12.091797 9 C 12.298389 9.5813394 12.847785 10 13.5 10 C 14.152215 10 14.701611 9.5813394 14.908203 9 L 17 9 L 17 8 L 14.908203 8 C 14.701611 7.4186606 14.152215 7 13.5 7 z M 10.5 11 A 1.5 1.5 0 0 0 9.0878906 12 L 7 12 L 7 13 L 9.0878906 13 A 1.5 1.5 0 0 0 10.5 14 A 1.5 1.5 0 0 0 11.912109 13 L 17 13 L 17 12 L 11.912109 12 A 1.5 1.5 0 0 0 10.5 11 z M 10.5 12 A 0.5 0.5 0 0 1 11 12.5 A 0.5 0.5 0 0 1 10.5 13 A 0.5 0.5 0 0 1 10 12.5 A 0.5 0.5 0 0 1 10.5 12 z "
     />
 </svg>
